X: 1
T:GALLAWA' HILLS
M:C
L:1/8
Q:80
C:Traditional
S:March
K:HP
|: e|
{g}A3B{GdG}c3d|
{gef}e2a2{ef}e3c|
{Gdc}d3B{g}G2{g}B3/2c/2|  !
{Gdc}d2gf{g}e2{gef}ec|
{g}A3B{GdG}c3d|
{gef}e2a2{ef}e3c|  !
{gde}d3/2e/2df{gef}e3c|
{gBd}B3{e}A{GAG}A3:| |:
{g}c3/4d/4|  !
{gef}e2a2{ef}e3c|
{gef}e2a2{ef}e3c|
{Gdc}d3B{g}G2{g}B3/2c/2|  !
{Gdc}d2gf{g}e2{gef}ec|
{g}A3B{GdG}c3d|
{gef}e2a2{ef}e3c|  !
{Gdc}d3/2c/2df{gef}e3c|
{gBd}B3{e}A{GAG}A3:|
